X:2291
T:The Tiger (ship)
C:W. Corlett, miner, Laxey
C:Traditional
O:Isle of Man
N:Second line bars 2 and 3 not clear, bar 2 note 2 may be A, bar 3 note 1 may be D.
Z:Clague collection
B:Kiaull Vannin #291 
M:2/4 
L:1/8 
Q:160 
K:D 
A|dd dF|G2 AA|FF DD|D3 e|fd fg|a2 gf|ed cB|A3 f| 
fd fg|a2 gf|ed cB|A3 A|dddF|G2 AA|FF DD|D3|| 

